X:44
T: Die Brombeerpflueckerin
N: Q0147K
O: Mitteleuropa, Deutschland (BRD) , Rheinland, Wipperfuerth
N: Vierte und siebte Zeile refrainartig.
R: Ballade, Verfuehrung, Schwangerschaft
M: 4/4
L: 1/16
K: G
D4 | G4D4D3DG2G2 | E4E4E4
G4 | F4A4d4d4 | B4z8
D4 | G4D4D3DG2G2 | E4E4E4
G4 | F4A4d4d4 | B4z8
G2A2 | B6B2B4d4 | d4c4A4z2
d2 | d6f2f6ee | e4d4B4
d2e2 | d4c4A4d4 | B4z8
G2A2 | B6B2B4d4 | d4c4A4z2
d2 | d6f2f6ee | e4d4B4
d2e2 | d4c4A4d4 | B4z8

@@@ Tune index: 1647
